X:1
T:The Dens of Ireland
M:4/4
L:1/8
K:C
 GG| A3 A G2 c2| E2E-D C2D-E| F2E-D E2D-C| A,6|A,-B,| D3 E G2 A2| C2 C A,- A,2 G,2|\
 G,3- A, C2 C2| C6||
